X: 766
T: Kai huang
L: 1/8
M: 2/4
K: Bb
f' d' c' d' [I:setbarnb 1]| 
b g f c | 
f g b d | 
c4 | 
f' d' c' d' | 
b g f d | 
f2g2 | 
c' b g f |]

@@@ Tune index: 9640
